assets/images/landing/diffusers-icon.svg

<svg width="90" height="100" viewBox="0 0 90 100" fill="none" xmlns="http://www.w3.org/2000/svg">
<path d="M73.4019 58.6781H67.6899C66.9541 58.6781 66.3571 58.0303 66.3571 57.2319V50.0006C66.3571 47.4939 68.2359 45.4553 70.5459 45.4553C72.8558 45.4553 74.7347 47.4941 74.7347 50.0006V57.2319C74.7347 58.0303 74.1376 58.6781 73.4019 58.6781H73.4019ZM69.0227 55.7857H72.0691V50.0007C72.0691 49.0894 71.3857 48.3478 70.5459 48.3478C69.7061 48.3478 69.0227 49.0894 69.0227 50.0007V55.7857Z" fill="#424B25"/>
<path d="M40.0822 99.9999H40.0815L39.8789 99.9991C32.5341 99.943 25.6019 96.7944 20.3606 91.1341C15.1177 85.4737 12.1826 77.9672 12.095 69.9982C11.9788 59.4109 16.8267 49.6915 25.0636 43.9981C30.0564 40.5463 33.0376 34.6808 33.0376 28.307C33.0376 27.5086 33.6346 26.8607 34.3704 26.8607H45.7947C46.5304 26.8607 47.1275 27.5086 47.1275 28.307C47.1275 34.694 50.093 40.5493 55.0605 43.9694C59.5078 47.0316 63.0581 51.3682 65.3322 56.5142C65.4437 56.7252 65.5076 56.9709 65.5076 57.2321C65.5076 57.9988 64.9582 58.626 64.2632 58.6754L64.2639 61.9842H66.1224C66.7487 61.9842 67.2913 62.4579 67.4246 63.122C67.4736 63.3662 67.5219 63.6105 67.5647 63.8562C67.6354 64.2569 67.5477 64.6708 67.322 64.997L62.3599 72.1767V87.5224C62.3599 87.8471 62.2592 88.1629 62.0736 88.4182C56.7259 95.7779 48.7098 100 40.0833 100L40.0822 99.9999ZM35.658 29.752C35.2398 36.5532 31.8813 42.7137 26.4948 46.4364C19.0419 51.5882 14.6543 60.3832 14.7598 69.9638C14.923 84.8248 26.1997 97.0009 39.8975 97.1067L40.0811 97.1074C47.7347 97.1074 54.8558 93.435 59.6935 87.0138V71.6944C59.6935 71.3816 59.7866 71.0768 59.96 70.8267L64.0728 64.8763H62.9303C62.1945 64.8763 61.5975 64.2285 61.5975 63.4301V57.2319C61.5975 56.7641 61.8015 56.3487 62.1191 56.0845C60.0696 52.1618 57.1631 48.8436 53.6311 46.4116C48.2658 42.7176 44.9208 36.5667 44.5045 29.7529L35.658 29.752Z" fill="#424B25"/>
<path d="M74.9252 99.9999H66.1666C62.5972 99.9999 59.6928 96.8483 59.6928 92.9751V71.6937C59.6928 70.8953 60.2898 70.2474 61.0256 70.2474H80.0669C80.8027 70.2474 81.3998 70.8953 81.3998 71.6937V92.9751C81.3998 96.8483 78.4953 99.9999 74.9259 99.9999H74.9252ZM62.3584 73.1403V92.9747C62.3584 95.2532 64.0666 97.1069 66.1665 97.1069H74.925C77.0248 97.1069 78.7331 95.2533 78.7331 92.9747V73.1403H62.3584Z" fill="#424B25"/>
<path d="M80.0659 73.1403H61.0245C60.52 73.1403 60.0582 72.8311 59.8324 72.3411C59.6067 71.8512 59.6556 71.2645 59.9583 70.8262L65.6703 62.5619C65.9219 62.1981 66.317 61.9834 66.7366 61.9834H74.3528C74.7723 61.9834 75.1674 62.1974 75.419 62.5619L81.1311 70.8262C81.4337 71.2645 81.4826 71.8512 81.2569 72.3411C81.0311 72.8311 80.5694 73.1403 80.0648 73.1403H80.0659ZM63.6912 70.2478H77.4003L73.6874 64.8759H67.404L63.6912 70.2478Z" fill="#424B25"/>
<path d="M78.1631 64.8759H62.9308C62.195 64.8759 61.5979 64.2281 61.5979 63.4297V57.2315C61.5979 56.4331 62.195 55.7853 62.9308 55.7853H78.1631C78.8989 55.7853 79.496 56.4331 79.496 57.2315V63.4297C79.496 64.2281 78.8989 64.8759 78.1631 64.8759ZM64.2635 61.9835H76.8303V58.6778H64.2635V61.9835Z" fill="#424B25"/>
<path d="M87.6821 99.9999H1.99954C1.26376 99.9999 0.666718 99.352 0.666718 98.5536C0.666718 97.7552 1.26377 97.1074 1.99954 97.1074H87.6821C88.4179 97.1074 89.0149 97.7552 89.0149 98.5536C89.0149 99.352 88.4178 99.9999 87.6821 99.9999Z" fill="#424B25"/>
<path d="M43.8894 29.752H36.2732C35.5374 29.752 34.9404 29.1041 34.9404 28.3057V21.8964C33.7048 22.9619 32.1672 23.5537 30.5611 23.5537C28.6565 23.5537 26.8796 22.742 25.563 21.2973C25.0163 21.4242 24.4587 21.4877 23.897 21.4877C19.4871 21.4877 15.8999 17.5954 15.8999 12.81C15.8999 8.02463 19.4869 4.13236 23.897 4.13236C25.7691 4.13236 27.5738 4.85548 28.9943 6.12827C30.6515 3.61062 33.343 2.06618 36.2731 2.06618C38.3207 2.06618 40.2614 2.81144 41.8256 4.15956C43.255 1.63303 45.8323 0 48.6495 0C52.2475 0 55.2912 2.55524 56.2949 6.11939C57.5713 4.8672 59.2537 4.13217 61.0258 4.13217C64.91 4.13217 68.0709 7.56107 68.0709 11.7767C68.0709 15.9924 64.9102 19.4213 61.0258 19.4213C59.7664 19.4213 58.5608 19.0664 57.502 18.4001C55.972 21.511 52.9431 23.5534 49.6016 23.5534C48.0518 23.5534 46.5462 23.1166 45.2223 22.3101V28.3054C45.2223 29.1038 44.6252 29.7516 43.8895 29.7516L43.8894 29.752ZM37.606 26.8596H42.5566V19.308C42.5566 18.7066 42.9 18.1679 43.4182 17.9554C43.9371 17.7429 44.5226 17.9008 44.8891 18.3517C46.0825 19.8193 47.8003 20.6613 49.6015 20.6613C52.3998 20.6613 54.8859 18.6218 55.647 15.7012C55.7768 15.2039 56.1413 14.8194 56.6031 14.6925C57.0655 14.5656 57.5544 14.7161 57.8863 15.0873C58.7179 16.017 59.8332 16.5291 61.0259 16.5291C63.4406 16.5291 65.4051 14.3974 65.4051 11.7772C65.4051 9.15694 63.4406 7.02522 61.0259 7.02522C59.3401 7.02522 57.7849 8.09516 57.0634 9.75179C56.86 10.2189 56.4425 10.5325 55.9685 10.5753C55.4952 10.6173 55.0349 10.3834 54.7635 9.95914C54.6241 9.74147 54.4711 9.5297 54.3072 9.32973C54.1046 9.08106 53.987 8.76377 53.974 8.43246C53.855 5.32601 51.5158 2.89318 48.6495 2.89318C46.2926 2.89318 44.1872 4.60729 43.5304 7.06219C43.3916 7.5824 42.9959 7.97421 42.5063 8.07825C42.016 8.1823 41.5141 7.98012 41.2047 7.55584C40.0031 5.90591 38.2058 4.95923 36.2733 4.95923C33.7544 4.95923 31.4866 6.58554 30.4952 9.10179C30.3075 9.57919 29.8975 9.9105 29.4221 9.97029C28.9468 10.0308 28.4783 9.80795 28.1954 9.38958C27.1931 7.90938 25.5862 7.02531 23.8971 7.02531C20.9573 7.02531 18.5658 9.62041 18.5658 12.8104C18.5658 16.0003 20.9573 18.5954 23.8971 18.5954C24.4744 18.5954 25.0456 18.4943 25.5944 18.2943C26.135 18.0973 26.7321 18.2958 27.0782 18.788C27.9153 19.9789 29.185 20.6615 30.5613 20.6615C31.8513 20.6615 33.0705 20.0468 33.9056 18.9754C34.213 18.5814 34.6903 18.3947 35.1582 18.4862C35.5322 18.5592 35.9069 18.5954 36.2734 18.5954C37.0092 18.5954 37.6062 19.2433 37.6062 20.0416L37.606 26.8596Z" fill="#424B25"/>
<path d="M40.0822 91.7355C28.8484 91.7355 19.7091 81.8183 19.7091 69.6286C19.7091 68.8302 20.3062 68.1824 21.042 68.1824C21.7777 68.1824 22.3748 68.8302 22.3748 69.6286C22.3748 80.2232 30.3188 88.8434 40.0826 88.8434C40.8184 88.8434 41.4155 89.4913 41.4155 90.2897C41.4155 91.0881 40.8184 91.7359 40.0826 91.7359L40.0822 91.7355Z" fill="#424B25"/>
<path d="M40.0822 66.9425C37.2473 66.9425 34.9413 64.4403 34.9413 61.3641C34.9413 58.2879 37.2473 55.7857 40.0822 55.7857C42.9172 55.7857 45.2231 58.2879 45.2231 61.3641C45.2231 64.4403 42.9172 66.9425 40.0822 66.9425ZM40.0822 58.6781C38.7174 58.6781 37.6069 59.8831 37.6069 61.3641C37.6069 62.8451 38.7174 64.05 40.0822 64.05C41.4471 64.05 42.5575 62.8451 42.5575 61.3641C42.5575 59.8831 41.4471 58.6781 40.0822 58.6781Z" fill="#424B25"/>
<path d="M48.6506 87.6023C45.2906 87.6023 42.5577 84.6368 42.5577 80.9909C42.5577 77.3449 45.2906 74.3794 48.6506 74.3794C52.0106 74.3794 54.7436 77.3449 54.7436 80.9909C54.7436 84.6368 52.0106 87.6023 48.6506 87.6023ZM48.6506 77.2718C46.761 77.2718 45.2233 78.9402 45.2233 80.9909C45.2233 83.0416 46.7608 84.7099 48.6506 84.7099C50.5405 84.7099 52.078 83.0416 52.078 80.9909C52.078 78.9402 50.5405 77.2718 48.6506 77.2718Z" fill="#424B25"/>
<path d="M80.0659 89.6689H66.7376C66.0018 89.6689 65.4048 89.0211 65.4048 88.2227C65.4048 87.4243 66.0019 86.7764 66.7376 86.7764H80.0659C80.8017 86.7764 81.3987 87.4243 81.3987 88.2227C81.3987 89.0211 80.8016 89.6689 80.0659 89.6689Z" fill="#424B25"/>
</svg>

<svg width="90" height="100" fill="none" xmlns="http://www.w3.org/2000/svg"><path d="M73.402 58.678H67.69c-.736 0-1.333-.648-1.333-1.446V50c0-2.507 1.879-4.546 4.189-4.546s4.189 2.04 4.189 4.546v7.23c0 .8-.597 1.447-1.333 1.447zm-4.38-2.892h3.047V50c0-.912-.683-1.653-1.523-1.653-.84 0-1.523.741-1.523 1.653v5.785zM40.082 100h-.203c-7.345-.057-14.277-3.206-19.518-8.866-5.243-5.66-8.178-13.167-8.266-21.136-.116-10.587 4.732-20.307 12.969-26 4.992-3.452 7.974-9.317 7.974-15.691 0-.798.597-1.446 1.332-1.446h11.425c.735 0 1.332.648 1.332 1.446 0 6.387 2.966 12.242 7.933 15.662 4.448 3.063 7.998 7.4 10.272 12.545.112.211.176.457.176.718 0 .767-.55 1.394-1.245 1.443v3.31h1.86c.626 0 1.168.473 1.302 1.137.049.244.097.489.14.734.07.4-.017.815-.243 1.141l-4.962 7.18v15.345c0 .325-.1.64-.286.896C56.726 95.778 48.71 100 40.084 100h-.002zm-4.424-70.248c-.418 6.801-3.777 12.962-9.163 16.684-7.453 5.152-11.84 13.947-11.735 23.528C14.923 84.824 26.2 97 39.898 97.107h.183c7.654 0 14.775-3.672 19.612-10.093v-15.32c0-.312.094-.617.267-.867l4.113-5.95H62.93c-.736 0-1.333-.648-1.333-1.447v-6.198c0-.468.204-.883.522-1.148-2.05-3.922-4.956-7.24-8.488-9.672-5.365-3.694-8.71-9.845-9.127-16.66h-8.846z" fill="#424B25"/><path d="M74.925 100h-8.758c-3.57 0-6.474-3.152-6.474-7.025V71.694c0-.799.597-1.447 1.333-1.447h19.04c.737 0 1.334.648 1.334 1.447v21.281c0 3.873-2.905 7.025-6.474 7.025zM62.358 73.14v19.835c0 2.278 1.709 4.132 3.809 4.132h8.758c2.1 0 3.808-1.854 3.808-4.132V73.14H62.358z" fill="#424B25"/><path d="M80.066 73.14H61.025c-.505 0-.967-.309-1.193-.799a1.55 1.55 0 0 1 .126-1.515l5.712-8.264a1.301 1.301 0 0 1 1.067-.579h7.616a1.3 1.3 0 0 1 1.066.579l5.712 8.264a1.55 1.55 0 0 1 .126 1.515c-.226.49-.688.8-1.192.8zM63.69 70.248h13.71l-3.714-5.372h-6.283l-3.713 5.372z" fill="#424B25"/><path d="M78.163 64.876H62.931c-.736 0-1.333-.648-1.333-1.446V57.23c0-.798.597-1.446 1.333-1.446h15.232c.736 0 1.333.648 1.333 1.447v6.198c0 .798-.597 1.446-1.333 1.446zm-13.9-2.893H76.83v-3.305H64.263v3.306zM87.682 100H2c-.736 0-1.333-.648-1.333-1.446 0-.799.597-1.447 1.333-1.447h85.682c.736 0 1.333.648 1.333 1.447 0 .798-.597 1.446-1.333 1.446zM43.89 29.752h-7.617c-.736 0-1.333-.648-1.333-1.446v-6.41c-1.235 1.066-2.773 1.658-4.379 1.658-1.904 0-3.681-.812-4.998-2.257a7.359 7.359 0 0 1-1.666.19c-4.41 0-7.997-3.892-7.997-8.677s3.587-8.678 7.997-8.678c1.872 0 3.677.723 5.097 1.996 1.657-2.517 4.349-4.062 7.28-4.062 2.047 0 3.987.745 5.552 2.094C43.255 1.633 45.832 0 48.65 0c3.598 0 6.641 2.555 7.645 6.12 1.276-1.253 2.959-1.988 4.73-1.988 3.885 0 7.046 3.43 7.046 7.645s-3.16 7.644-7.045 7.644a6.579 6.579 0 0 1-3.524-1.02c-1.53 3.11-4.559 5.152-7.9 5.152a8.405 8.405 0 0 1-4.38-1.243v5.995c0 .799-.597 1.447-1.333 1.447zm-6.284-2.892h4.95v-7.552c0-.601.344-1.14.862-1.353.52-.212 1.105-.054 1.471.397 1.194 1.467 2.911 2.31 4.712 2.31 2.799 0 5.285-2.04 6.046-4.96.13-.498.494-.883.956-1.01.462-.126.951.024 1.283.395.832.93 1.947 1.442 3.14 1.442 2.415 0 4.38-2.132 4.38-4.752 0-2.62-1.965-4.752-4.38-4.752-1.686 0-3.241 1.07-3.963 2.727-.203.467-.62.78-1.095.823a1.299 1.299 0 0 1-1.205-.616 6.67 6.67 0 0 0-.456-.63 1.517 1.517 0 0 1-.333-.897c-.119-3.106-2.458-5.539-5.324-5.539-2.357 0-4.463 1.714-5.12 4.17-.138.52-.534.911-1.024 1.015-.49.104-.992-.098-1.301-.522-1.202-1.65-3-2.597-4.932-2.597-2.519 0-4.786 1.627-5.778 4.143-.188.477-.598.809-1.073.868-.475.06-.944-.162-1.227-.58-1.002-1.48-2.609-2.365-4.298-2.365-2.94 0-5.331 2.595-5.331 5.785s2.391 5.785 5.331 5.785c.577 0 1.149-.1 1.697-.3.541-.198 1.138 0 1.484.493.837 1.19 2.107 1.873 3.483 1.873 1.29 0 2.51-.614 3.345-1.686.307-.394.784-.58 1.252-.489.374.073.749.11 1.115.11.736 0 1.333.647 1.333 1.446v6.818zM40.082 91.736c-11.234 0-20.373-9.918-20.373-22.107 0-.799.597-1.447 1.333-1.447s1.333.648 1.333 1.447c0 10.594 7.944 19.214 17.708 19.214.735 0 1.333.648 1.333 1.447 0 .798-.598 1.446-1.333 1.446zM40.082 66.942c-2.835 0-5.14-2.502-5.14-5.578 0-3.076 2.305-5.578 5.14-5.578 2.835 0 5.141 2.502 5.141 5.578 0 3.076-2.306 5.578-5.14 5.578zm0-8.264c-1.365 0-2.475 1.205-2.475 2.686 0 1.481 1.11 2.686 2.475 2.686s2.475-1.205 2.475-2.686c0-1.48-1.11-2.686-2.475-2.686zM48.65 87.602c-3.36 0-6.092-2.965-6.092-6.611s2.733-6.612 6.093-6.612 6.093 2.966 6.093 6.612-2.733 6.611-6.093 6.611zm0-10.33c-1.889 0-3.427 1.668-3.427 3.719 0 2.05 1.538 3.719 3.428 3.719s3.427-1.668 3.427-3.72c0-2.05-1.538-3.718-3.427-3.718zM80.066 89.669H66.738c-.736 0-1.333-.648-1.333-1.446 0-.799.597-1.447 1.333-1.447h13.328c.736 0 1.333.648 1.333 1.447 0 .798-.597 1.446-1.333 1.446z" fill="#424B25"/></svg>
